packages/core/src/svgs/tokens/branded/NULS.svg

<svg width="24" height="24" viewBox="0 0 24 24" fill="none" xmlns="http://www.w3.org/2000/svg">
<path d="M10.4921 15.3652L12 17.4562V22L6.47095 19.336V7.62957C6.47095 7.45365 6.52625 7.28777 6.6519 7.1772L7.30533 6.58911C7.36748 6.5328 7.44076 6.49019 7.52043 6.46405C7.60011 6.4379 7.68439 6.4288 7.7678 6.43732C7.85122 6.44586 7.93191 6.47184 8.00465 6.51357C8.07738 6.55531 8.14053 6.61186 8.18998 6.67958L13.2264 13.8523L16.0211 15.6919V5.82006L13.5079 4.48304V10.6806L12 8.81077V2L17.529 4.7796V16.4408L16.4232 17.5618L12.3518 15.1692L7.97887 8.95654V18.4062L10.4921 19.6276V15.3652Z" fill="#00E789"/>
</svg>

<svg xmlns="http://www.w3.org/2000/svg" width="24" height="24" fill="none" viewBox="0 0 24 24">
    <path fill="#00E789" d="M10.492 15.365 12 17.456V22l-5.529-2.664V7.63c0-.176.055-.342.18-.453l.654-.588a.6.6 0 0 1 .885.09l5.036 7.173 2.795 1.84V5.82l-2.513-1.337v6.198L12 8.81V2l5.529 2.78v11.66l-1.106 1.122-4.071-2.393-4.373-6.212v9.45l2.513 1.22z"/>
</svg>
